X: 22
T:Fort of Kincora, The
M:4/4
L:1/8
R:Hornpipe
K:G
(3DEF[|:GA (3GFE DG,B,D|GFGA Bdgf|edcB (3ABA GA|BAGF E2 (3DEF|!
GA (3GFE DG,B,D|GFGA (3Bcd gf|edcB (3ABA GA|1(3BdB G2 G2 (3DEF:|2(3BdB G
2 G2Bc|!
|:d^cde dBGD|GBd^c dgfg|ef (3gfe dBGB|(3cBA (3BAG ADEF|!
GA (3GFE DG,B,D|GFGA Bdgf|edcB (3ABA GA|1(3BdB G2 G2Bc:|2(3BdB G2 G2 (3D
EF|]!
% Output from ABC2Win  Version 2.1 i on 12/16/2003
